raw-svg/magazine.svg

<?xml version="1.0" encoding="iso-8859-1"?>
<!-- Generator: Adobe Illustrator 18.1.1, SVG Export Plug-In . SVG Version: 6.00 Build 0)  -->
<svg version="1.1" id="Capa_1" xmlns="http://www.w3.org/2000/svg" xmlns:xlink="http://www.w3.org/1999/xlink" x="0px" y="0px"
	 viewBox="0 0 18.69 18.69" style="enable-background:new 0 0 18.69 18.69;" xml:space="preserve">
<g>
	<g>
		<path style="fill:#030104;" d="M18.554,7.187c-0.069-0.061-0.321-0.238-0.665,0.062c-0.73,0.637-1.296,0.625-1.49,0.596
			c1.242-2.157,1.089-2.293,0.883-2.471c-0.07-0.06-0.323-0.233-0.667,0.065c-0.68,0.593-1.197,0.385-1.374,0.279l1.519-2.54
			c0.103-0.17,0.068-0.39-0.08-0.522c-0.15-0.132-0.372-0.139-0.527-0.017C15.982,2.77,15.51,2.99,14.252,2.99
			c-2.806,0-7.158-1.078-7.202-1.089C6.883,1.859,6.709,1.925,6.61,2.066c-6.155,8.817-6.658,10.002-6.596,10.343
			c0,0.001,0,0.002,0,0.002c-0.045,0.167,0.019,0.337,0.148,0.436c-0.038,0.196,0.063,0.396,0.256,0.466
			c7.929,2.891,10.814,3.488,11.903,3.488c0.55,0,0.643-0.152,0.695-0.239C19.063,7.637,18.893,7.487,18.554,7.187z M16.14,6.612
			c-0.865,1.55-2.778,4.644-4.577,7.458c-0.256,0.084-1.911,0.387-9.768-1.62c0.297-0.033,0.614-0.055,0.961-0.055
			c3.147,0,7.265,1.336,7.306,1.35c0.043,0.015,0.087,0.021,0.13,0.021c0.142,0,0.278-0.075,0.354-0.202l4.268-7.135
			C15.112,6.606,15.584,6.747,16.14,6.612z M7.126,2.773c1.025,0.243,4.602,1.046,7.124,1.046c0.462,0,0.864-0.027,1.211-0.081
			l-5.457,9.121c-1.046-0.321-4.449-1.291-7.248-1.291c-0.594,0-1.129,0.045-1.599,0.134C2.152,10.011,5.099,5.682,7.126,2.773z
			 M12.413,15.977c-0.007,0.001-0.014,0.001-0.019,0.003c-0.152,0.005-0.526-0.006-1.34-0.172c-1.006-0.206-2.778-0.669-5.828-1.688
			c2.231,0.489,4.273,0.837,5.578,0.837c0.738,0,1.24-0.11,1.409-0.369l0.001,0.001c1.778-2.781,2.971-4.694,3.76-6.021
			c0.027,0.017,0.052,0.038,0.084,0.049c0.03,0.011,0.512,0.17,1.211-0.06C16.204,10.305,13.978,13.663,12.413,15.977z"/>
		<path style="fill:#030104;" d="M10.756,6.845c-0.024-0.033-0.175-0.232-0.646-0.412L9.887,6.341
			c-0.369-0.144-0.619-0.208-0.629-0.21C9.24,6.127,9.22,6.124,9.2,6.123c-0.015,0-0.067-0.003-0.105-0.013
			C9.002,6.084,8.839,6.083,8.809,6.083c-0.037,0-0.932,0.016-1.408,0.357C7.359,6.467,7.164,6.614,7.046,7.041
			C7.024,7.044,7.001,7.049,6.98,7.057c-0.146,0.051-0.179,0.214-0.187,0.31C6.77,7.45,6.798,7.51,6.835,7.551
			C6.687,8.043,7.171,8.619,7.853,8.749c0.795,0.151,1.804-0.18,2.206-0.584c0.076-0.02,0.162-0.058,0.236-0.131
			c0.098-0.079,0.249-0.22,0.189-0.311c-0.004-0.004-0.006-0.009-0.012-0.014C10.681,7.543,11.032,7.187,10.756,6.845z M10.145,7.67
			c-0.033,0.024-0.039,0.056-0.014,0.083c0.013,0.015,0.032,0.026,0.055,0.035c-0.021,0.037-0.083,0.102-0.151,0.155
			c-0.003,0.002-0.007,0.005-0.009,0.008c-0.038,0.04-0.083,0.065-0.128,0.073C9.86,8.03,9.827,8.044,9.81,8.063
			C9.495,8.406,8.593,8.72,7.946,8.597c-0.544-0.103-0.948-0.627-0.8-1.039C7.154,7.536,7.145,7.514,7.12,7.495
			C7.093,7.474,7.084,7.437,7.096,7.393C7.097,7.39,7.098,7.387,7.098,7.384c0.004-0.062,0.023-0.128,0.044-0.167
			c0.03,0.004,0.059,0.004,0.088-0.001c0.054-0.009,0.091-0.034,0.098-0.064c0.106-0.469,0.31-0.605,0.31-0.605
			c0.003-0.002,0.005-0.003,0.009-0.005C8.036,6.26,8.823,6.246,8.828,6.246c0.036,0,0.104,0.002,0.137,0.008
			C9.03,6.272,9.114,6.281,9.158,6.283C9.226,6.302,9.432,6.362,9.71,6.47l0.222,0.093c0.421,0.16,0.537,0.332,0.537,0.333
			c0.002,0.002,0.004,0.005,0.006,0.007C10.733,7.216,10.286,7.569,10.145,7.67z"/>
		<path style="fill:#030104;" d="M3.096,10.161c1.121,0.553,3.138,0.998,3.138,0.998c0.11,0.021,0.215,0.039,0.319,0.055v0.005
			c0,0,2.083,0.337,3.573,0.279c0,0,0.2,0.013,0.343-0.21c0,0,0.528-0.993,0.228-1.543c0,0-0.091-0.146-0.43-0.296
			c0,0-0.028-0.012-0.073-0.03C9.903,9.27,9.611,9.155,9.611,9.155C9.548,9.128,9.496,9.104,9.448,9.081
			c-0.194-0.104-0.349-0.28-0.349-0.28c-1.667,0.676-2.253-0.43-2.253-0.43C6.632,8.527,5.215,8.486,5.215,8.486
			C4.784,8.49,4.551,8.575,4.551,8.575C3.716,8.908,3.054,9.876,3.054,9.876C2.926,10.103,3.096,10.161,3.096,10.161z"/>
		<path style="fill:#030104;" d="M9.037,8.823C9.058,8.816,9.078,8.81,9.099,8.802c0-0.007,0.002-0.011,0.002-0.011
			C9.078,8.803,9.058,8.811,9.037,8.823z"/>
		<polygon style="fill:#030104;" points="6.853,8.368 6.853,8.368 6.853,8.372 		"/>
		<polygon style="fill:#030104;" points="6.853,8.365 6.845,8.372 6.853,8.368 		"/>
		<path style="fill:#030104;" d="M6.666,4.61c0.076,0.011,0.147,0.007,0.213-0.012C6.946,4.58,7,4.547,7.041,4.5l0.261-0.313
			C7.382,4.09,7.468,4.02,7.564,3.975C7.657,3.93,7.786,3.919,7.946,3.942c0.08,0.011,0.131,0.029,0.151,0.055
			c0.021,0.026,0.021,0.055,0.001,0.089c-0.018,0.033-0.051,0.079-0.1,0.137L7.692,4.59C7.65,4.639,7.644,4.678,7.669,4.709
			C7.695,4.74,7.746,4.761,7.82,4.771C7.897,4.782,7.968,4.778,8.036,4.76c0.065-0.017,0.12-0.05,0.162-0.099l0.256-0.307
			C8.536,4.256,8.611,4.189,8.68,4.156c0.058-0.025,0.124-0.043,0.197-0.053C8.95,4.093,9.02,4.092,9.085,4.102
			c0.08,0.011,0.131,0.029,0.154,0.055c0.022,0.026,0.027,0.055,0.01,0.086C9.234,4.274,9.206,4.315,9.164,4.364L8.84,4.751
			C8.8,4.799,8.794,4.838,8.82,4.87c0.028,0.031,0.079,0.052,0.153,0.063c0.077,0.01,0.149,0.008,0.216-0.01
			c0.065-0.018,0.12-0.051,0.161-0.099l0.375-0.45C9.8,4.284,9.833,4.216,9.826,4.168C9.817,4.115,9.774,4.07,9.697,4.031
			C9.619,3.992,9.515,3.964,9.38,3.945c-0.114-0.017-0.229-0.02-0.343-0.01c-0.114,0.01-0.233,0.032-0.355,0.068
			c-0.02-0.055-0.063-0.1-0.132-0.135c-0.069-0.036-0.167-0.062-0.29-0.08c-0.119-0.016-0.235-0.02-0.353-0.012
			C7.792,3.785,7.67,3.808,7.546,3.843l0.019-0.022C7.596,3.784,7.597,3.752,7.57,3.724C7.543,3.697,7.495,3.678,7.428,3.669
			c-0.071-0.01-0.135-0.006-0.197,0.01c-0.062,0.016-0.11,0.046-0.146,0.089l-0.55,0.66c-0.04,0.048-0.046,0.087-0.02,0.119
			C6.541,4.578,6.592,4.599,6.666,4.61z"/>
		<path style="fill:#030104;" d="M11.101,4.6c-0.097-0.003-0.212-0.007-0.345-0.012c-0.133-0.006-0.218-0.01-0.252-0.01
			c-0.16-0.006-0.303,0.008-0.426,0.04S9.867,4.699,9.815,4.761c-0.039,0.047-0.05,0.094-0.031,0.141
			C9.803,4.95,9.85,4.991,9.926,5.028c0.077,0.037,0.178,0.064,0.304,0.082c0.138,0.02,0.272,0.026,0.4,0.02
			c0.129-0.005,0.272-0.021,0.427-0.048c0.02,0.05,0.046,0.09,0.075,0.119c0.031,0.029,0.072,0.047,0.123,0.055
			c0.06,0.009,0.121,0.006,0.185-0.007c0.063-0.012,0.106-0.031,0.126-0.055c0.011-0.013,0.021-0.045,0.029-0.097
			c0.009-0.051,0.031-0.099,0.067-0.142c0.04-0.046,0.075-0.088,0.107-0.125c0.031-0.038,0.071-0.084,0.116-0.137
			c0.071-0.086,0.104-0.158,0.096-0.217s-0.064-0.109-0.169-0.15c-0.102-0.041-0.263-0.077-0.479-0.107
			c-0.192-0.027-0.364-0.038-0.516-0.032c-0.151,0.007-0.272,0.025-0.367,0.055c-0.09,0.028-0.154,0.062-0.188,0.103
			c-0.022,0.026-0.018,0.05,0.008,0.072s0.067,0.037,0.121,0.045c0.062,0.008,0.105,0.009,0.134,0.001
			c0.027-0.008,0.077-0.025,0.148-0.051c0.073-0.026,0.147-0.042,0.225-0.051c0.076-0.007,0.178-0.002,0.302,0.016
			c0.146,0.021,0.229,0.048,0.252,0.083c0.022,0.035,0.012,0.083-0.034,0.145C11.303,4.605,11.198,4.603,11.101,4.6z M11.276,4.776
			c-0.066,0.08-0.138,0.135-0.211,0.163C11,4.965,10.919,4.982,10.821,4.991c-0.101,0.008-0.198,0.006-0.296-0.008
			c-0.092-0.013-0.155-0.036-0.191-0.068s-0.038-0.066-0.009-0.101c0.027-0.034,0.073-0.057,0.135-0.069
			c0.066-0.012,0.127-0.018,0.186-0.017c0.059,0.001,0.161,0.005,0.312,0.011c0.148,0.005,0.264,0.007,0.346,0.005L11.276,4.776z"/>
		<path style="fill:#030104;" d="M13.036,5.603c-0.052,0.026-0.122,0.042-0.206,0.048c-0.083,0.007-0.189,0.001-0.316-0.017
			c-0.063-0.008-0.116-0.019-0.158-0.031c-0.045-0.012-0.078-0.026-0.105-0.042c-0.022-0.016-0.043-0.034-0.059-0.052
			c-0.016-0.02-0.031-0.04-0.045-0.059c-0.028-0.037-0.08-0.061-0.151-0.071c-0.058-0.008-0.114-0.006-0.171,0.006
			c-0.055,0.012-0.095,0.032-0.117,0.06c-0.031,0.037-0.025,0.079,0.017,0.124c0.042,0.045,0.121,0.088,0.236,0.129
			c0.115,0.041,0.256,0.073,0.425,0.097c0.186,0.027,0.349,0.04,0.486,0.039c0.14,0,0.263-0.012,0.369-0.038
			c0.108-0.025,0.201-0.063,0.282-0.112c0.081-0.051,0.153-0.115,0.218-0.191l0.559-0.67c0.044-0.053,0.063-0.097,0.058-0.131
			c-0.007-0.034-0.059-0.056-0.151-0.07c-0.068-0.01-0.131-0.006-0.19,0.01c-0.062,0.016-0.108,0.044-0.142,0.083l-0.026,0.032
			c-0.043-0.066-0.105-0.119-0.187-0.158c-0.08-0.04-0.191-0.069-0.332-0.089c-0.114-0.016-0.229-0.022-0.343-0.016
			c-0.115,0.006-0.224,0.023-0.33,0.05c-0.107,0.028-0.203,0.067-0.29,0.117c-0.088,0.05-0.16,0.11-0.218,0.179
			c-0.078,0.093-0.112,0.179-0.105,0.26c0.008,0.081,0.056,0.149,0.146,0.206s0.218,0.097,0.382,0.12
			c0.138,0.02,0.266,0.022,0.386,0.011c0.122-0.012,0.239-0.038,0.357-0.077C13.25,5.426,13.2,5.479,13.167,5.513
			C13.134,5.547,13.09,5.577,13.036,5.603z M13.118,5.267c-0.09,0.01-0.175,0.01-0.258-0.002c-0.138-0.019-0.23-0.059-0.277-0.119
			c-0.046-0.06-0.032-0.137,0.047-0.23c0.077-0.092,0.179-0.157,0.307-0.195c0.126-0.039,0.259-0.047,0.399-0.028
			c0.145,0.02,0.238,0.063,0.283,0.127c0.044,0.064,0.027,0.144-0.051,0.238c-0.05,0.059-0.114,0.106-0.194,0.142
			C13.295,5.234,13.209,5.257,13.118,5.267z"/>
	</g>
</g>
<g>
</g>
<g>
</g>
<g>
</g>
<g>
</g>
<g>
</g>
<g>
</g>
<g>
</g>
<g>
</g>
<g>
</g>
<g>
</g>
<g>
</g>
<g>
</g>
<g>
</g>
<g>
</g>
<g>
</g>
</svg>

<?xml version="1.0" encoding="UTF-8" standalone="no"?>
<!-- Generator: Adobe Illustrator 18.1.1, SVG Export Plug-In . SVG Version: 6.00 Build 0)  -->

<svg
   version="1.1"
   id="Capa_1"
   x="0px"
   y="0px"
   viewBox="0 0 23.999999 23.999999"
   xml:space="preserve"
   sodipodi:docname="magazine.svg"
   width="24"
   height="24"
   inkscape:version="1.1.1 (3bf5ae0d25, 2021-09-20)"
   xmlns:inkscape="http://www.inkscape.org/namespaces/inkscape"
   xmlns:sodipodi="http://sodipodi.sourceforge.net/DTD/sodipodi-0.dtd"
   xmlns="http://www.w3.org/2000/svg"
   xmlns:svg="http://www.w3.org/2000/svg"><defs
   id="defs57" /><sodipodi:namedview
   id="namedview55"
   pagecolor="#ffffff"
   bordercolor="#666666"
   borderopacity="1.0"
   inkscape:pageshadow="2"
   inkscape:pageopacity="0.0"
   inkscape:pagecheckerboard="0"
   showgrid="false"
   width="24px"
   inkscape:zoom="34.456928"
   inkscape:cx="9.3304894"
   inkscape:cy="9.3450003"
   inkscape:window-width="1920"
   inkscape:window-height="1015"
   inkscape:window-x="1920"
   inkscape:window-y="0"
   inkscape:window-maximized="1"
   inkscape:current-layer="Capa_1" />
<g
   id="g22"
   transform="matrix(1.2306343,0,0,1.2306343,0.50042716,0.50003265)">
	<g
   id="g20">
		<path
   style="fill:#030104"
   d="m 18.554,7.187 c -0.069,-0.061 -0.321,-0.238 -0.665,0.062 -0.73,0.637 -1.296,0.625 -1.49,0.596 1.242,-2.157 1.089,-2.293 0.883,-2.471 -0.07,-0.06 -0.323,-0.233 -0.667,0.065 -0.68,0.593 -1.197,0.385 -1.374,0.279 L 16.76,3.178 C 16.863,3.008 16.828,2.788 16.68,2.656 16.53,2.524 16.308,2.517 16.153,2.639 15.982,2.77 15.51,2.99 14.252,2.99 11.446,2.99 7.094,1.912 7.05,1.901 6.883,1.859 6.709,1.925 6.61,2.066 0.455,10.883 -0.048,12.068 0.014,12.409 c 0,10e-4 0,0.002 0,0.002 -0.045,0.167 0.019,0.337 0.148,0.436 -0.038,0.196 0.063,0.396 0.256,0.466 7.929,2.891 10.814,3.488 11.903,3.488 0.55,0 0.643,-0.152 0.695,-0.239 6.047,-8.925 5.877,-9.075 5.538,-9.375 z M 16.14,6.612 c -0.865,1.55 -2.778,4.644 -4.577,7.458 -0.256,0.084 -1.911,0.387 -9.768,-1.62 0.297,-0.033 0.614,-0.055 0.961,-0.055 3.147,0 7.265,1.336 7.306,1.35 0.043,0.015 0.087,0.021 0.13,0.021 0.142,0 0.278,-0.075 0.354,-0.202 l 4.268,-7.135 c 0.298,0.177 0.77,0.318 1.326,0.183 z M 7.126,2.773 c 1.025,0.243 4.602,1.046 7.124,1.046 0.462,0 0.864,-0.027 1.211,-0.081 l -5.457,9.121 C 8.958,12.538 5.555,11.568 2.756,11.568 c -0.594,0 -1.129,0.045 -1.599,0.134 0.995,-1.691 3.942,-6.02 5.969,-8.929 z m 5.287,13.204 c -0.007,10e-4 -0.014,10e-4 -0.019,0.003 -0.152,0.005 -0.526,-0.006 -1.34,-0.172 -1.006,-0.206 -2.778,-0.669 -5.828,-1.688 2.231,0.489 4.273,0.837 5.578,0.837 0.738,0 1.24,-0.11 1.409,-0.369 l 0.001,0.001 c 1.778,-2.781 2.971,-4.694 3.76,-6.021 0.027,0.017 0.052,0.038 0.084,0.049 0.03,0.011 0.512,0.17 1.211,-0.06 -1.065,1.748 -3.291,5.106 -4.856,7.42 z"
   id="path2" />
		<path
   style="fill:#030104"
   d="M 10.756,6.845 C 10.732,6.812 10.581,6.613 10.11,6.433 L 9.887,6.341 C 9.518,6.197 9.268,6.133 9.258,6.131 9.24,6.127 9.22,6.124 9.2,6.123 9.185,6.123 9.133,6.12 9.095,6.11 9.002,6.084 8.839,6.083 8.809,6.083 8.772,6.083 7.877,6.099 7.401,6.44 7.359,6.467 7.164,6.614 7.046,7.041 7.024,7.044 7.001,7.049 6.98,7.057 6.834,7.108 6.801,7.271 6.793,7.367 6.77,7.45 6.798,7.51 6.835,7.551 6.687,8.043 7.171,8.619 7.853,8.749 8.648,8.9 9.657,8.569 10.059,8.165 10.135,8.145 10.221,8.107 10.295,8.034 10.393,7.955 10.544,7.814 10.484,7.723 10.48,7.719 10.478,7.714 10.472,7.709 10.681,7.543 11.032,7.187 10.756,6.845 Z M 10.145,7.67 c -0.033,0.024 -0.039,0.056 -0.014,0.083 0.013,0.015 0.032,0.026 0.055,0.035 C 10.165,7.825 10.103,7.89 10.035,7.943 10.032,7.945 10.028,7.948 10.026,7.951 9.988,7.991 9.943,8.016 9.898,8.024 9.86,8.03 9.827,8.044 9.81,8.063 9.495,8.406 8.593,8.72 7.946,8.597 7.402,8.494 6.998,7.97 7.146,7.558 7.154,7.536 7.145,7.514 7.12,7.495 7.093,7.474 7.084,7.437 7.096,7.393 7.097,7.39 7.098,7.387 7.098,7.384 7.102,7.322 7.121,7.256 7.142,7.217 7.172,7.221 7.201,7.221 7.23,7.216 7.284,7.207 7.321,7.182 7.328,7.152 7.434,6.683 7.638,6.547 7.638,6.547 7.641,6.545 7.643,6.544 7.647,6.542 8.036,6.26 8.823,6.246 8.828,6.246 8.864,6.246 8.932,6.248 8.965,6.254 9.03,6.272 9.114,6.281 9.158,6.283 9.226,6.302 9.432,6.362 9.71,6.47 l 0.222,0.093 c 0.421,0.16 0.537,0.332 0.537,0.333 0.002,0.002 0.004,0.005 0.006,0.007 0.258,0.313 -0.189,0.666 -0.33,0.767 z"
   id="path4" />
		<path
   style="fill:#030104"
   d="m 3.096,10.161 c 1.121,0.553 3.138,0.998 3.138,0.998 0.11,0.021 0.215,0.039 0.319,0.055 v 0.005 c 0,0 2.083,0.337 3.573,0.279 0,0 0.2,0.013 0.343,-0.21 0,0 0.528,-0.993 0.228,-1.543 0,0 -0.091,-0.146 -0.43,-0.296 0,0 -0.028,-0.012 -0.073,-0.03 C 9.903,9.27 9.611,9.155 9.611,9.155 9.548,9.128 9.496,9.104 9.448,9.081 9.254,8.977 9.099,8.801 9.099,8.801 7.432,9.477 6.846,8.371 6.846,8.371 6.632,8.527 5.215,8.486 5.215,8.486 4.784,8.49 4.551,8.575 4.551,8.575 3.716,8.908 3.054,9.876 3.054,9.876 c -0.128,0.227 0.042,0.285 0.042,0.285 z"
   id="path6" />
		<path
   style="fill:#030104"
   d="M 9.037,8.823 C 9.058,8.816 9.078,8.81 9.099,8.802 9.099,8.795 9.101,8.791 9.101,8.791 9.078,8.803 9.058,8.811 9.037,8.823 Z"
   id="path8" />
		<polygon
   style="fill:#030104"
   points="6.853,8.372 6.853,8.368 "
   id="polygon10" />
		<polygon
   style="fill:#030104"
   points="6.853,8.365 6.845,8.372 6.853,8.368 "
   id="polygon12" />
		<path
   style="fill:#030104"
   d="M 6.666,4.61 C 6.742,4.621 6.813,4.617 6.879,4.598 6.946,4.58 7,4.547 7.041,4.5 L 7.302,4.187 C 7.382,4.09 7.468,4.02 7.564,3.975 7.657,3.93 7.786,3.919 7.946,3.942 8.026,3.953 8.077,3.971 8.097,3.997 8.118,4.023 8.118,4.052 8.098,4.086 8.08,4.119 8.047,4.165 7.998,4.223 L 7.692,4.59 C 7.65,4.639 7.644,4.678 7.669,4.709 7.695,4.74 7.746,4.761 7.82,4.771 7.897,4.782 7.968,4.778 8.036,4.76 8.101,4.743 8.156,4.71 8.198,4.661 L 8.454,4.354 C 8.536,4.256 8.611,4.189 8.68,4.156 8.738,4.131 8.804,4.113 8.877,4.103 8.95,4.093 9.02,4.092 9.085,4.102 9.165,4.113 9.216,4.131 9.239,4.157 9.261,4.183 9.266,4.212 9.249,4.243 9.234,4.274 9.206,4.315 9.164,4.364 L 8.84,4.751 C 8.8,4.799 8.794,4.838 8.82,4.87 8.848,4.901 8.899,4.922 8.973,4.933 9.05,4.943 9.122,4.941 9.189,4.923 9.254,4.905 9.309,4.872 9.35,4.824 L 9.725,4.374 C 9.8,4.284 9.833,4.216 9.826,4.168 9.817,4.115 9.774,4.07 9.697,4.031 9.619,3.992 9.515,3.964 9.38,3.945 9.266,3.928 9.151,3.925 9.037,3.935 8.923,3.945 8.804,3.967 8.682,4.003 8.662,3.948 8.619,3.903 8.55,3.868 8.481,3.832 8.383,3.806 8.26,3.788 8.141,3.772 8.025,3.768 7.907,3.776 7.792,3.785 7.67,3.808 7.546,3.843 L 7.565,3.821 C 7.596,3.784 7.597,3.752 7.57,3.724 7.543,3.697 7.495,3.678 7.428,3.669 7.357,3.659 7.293,3.663 7.231,3.679 7.169,3.695 7.121,3.725 7.085,3.768 l -0.55,0.66 C 6.495,4.476 6.489,4.515 6.515,4.547 6.541,4.578 6.592,4.599 6.666,4.61 Z"
   id="path14" />
		<path
   style="fill:#030104"
   d="M 11.101,4.6 C 11.004,4.597 10.889,4.593 10.756,4.588 10.623,4.582 10.538,4.578 10.504,4.578 10.344,4.572 10.201,4.586 10.078,4.618 9.955,4.65 9.867,4.699 9.815,4.761 9.776,4.808 9.765,4.855 9.784,4.902 9.803,4.95 9.85,4.991 9.926,5.028 c 0.077,0.037 0.178,0.064 0.304,0.082 0.138,0.02 0.272,0.026 0.4,0.02 0.129,-0.005 0.272,-0.021 0.427,-0.048 0.02,0.05 0.046,0.09 0.075,0.119 0.031,0.029 0.072,0.047 0.123,0.055 0.06,0.009 0.121,0.006 0.185,-0.007 C 11.503,5.237 11.546,5.218 11.566,5.194 11.577,5.181 11.587,5.149 11.595,5.097 11.604,5.046 11.626,4.998 11.662,4.955 11.702,4.909 11.737,4.867 11.769,4.83 11.8,4.792 11.84,4.746 11.885,4.693 11.956,4.607 11.989,4.535 11.981,4.476 11.973,4.417 11.917,4.367 11.812,4.326 11.71,4.285 11.549,4.249 11.333,4.219 11.141,4.192 10.969,4.181 10.817,4.187 10.666,4.194 10.545,4.212 10.45,4.242 10.36,4.27 10.296,4.304 10.262,4.345 c -0.022,0.026 -0.018,0.05 0.008,0.072 0.026,0.022 0.067,0.037 0.121,0.045 0.062,0.008 0.105,0.009 0.134,0.001 0.027,-0.008 0.077,-0.025 0.148,-0.051 0.073,-0.026 0.147,-0.042 0.225,-0.051 0.076,-0.007 0.178,-0.002 0.302,0.016 0.146,0.021 0.229,0.048 0.252,0.083 0.022,0.035 0.012,0.083 -0.034,0.145 -0.115,0 -0.22,-0.002 -0.317,-0.005 z m 0.175,0.176 C 11.21,4.856 11.138,4.911 11.065,4.939 11,4.965 10.919,4.982 10.821,4.991 10.72,4.999 10.623,4.997 10.525,4.983 10.433,4.97 10.37,4.947 10.334,4.915 10.298,4.883 10.296,4.849 10.325,4.814 10.352,4.78 10.398,4.757 10.46,4.745 c 0.066,-0.012 0.127,-0.018 0.186,-0.017 0.059,0.001 0.161,0.005 0.312,0.011 0.148,0.005 0.264,0.007 0.346,0.005 z"
   id="path16" />
		<path
   style="fill:#030104"
   d="M 13.036,5.603 C 12.984,5.629 12.914,5.645 12.83,5.651 12.747,5.658 12.641,5.652 12.514,5.634 12.451,5.626 12.398,5.615 12.356,5.603 12.311,5.591 12.278,5.577 12.251,5.561 12.229,5.545 12.208,5.527 12.192,5.509 12.176,5.489 12.161,5.469 12.147,5.45 12.119,5.413 12.067,5.389 11.996,5.379 11.938,5.371 11.882,5.373 11.825,5.385 11.77,5.397 11.73,5.417 11.708,5.445 c -0.031,0.037 -0.025,0.079 0.017,0.124 0.042,0.045 0.121,0.088 0.236,0.129 0.115,0.041 0.256,0.073 0.425,0.097 0.186,0.027 0.349,0.04 0.486,0.039 0.14,0 0.263,-0.012 0.369,-0.038 0.108,-0.025 0.201,-0.063 0.282,-0.112 0.081,-0.051 0.153,-0.115 0.218,-0.191 L 14.3,4.823 C 14.344,4.77 14.363,4.726 14.358,4.692 14.351,4.658 14.299,4.636 14.207,4.622 14.139,4.612 14.076,4.616 14.017,4.632 13.955,4.648 13.909,4.676 13.875,4.715 L 13.849,4.747 C 13.806,4.681 13.744,4.628 13.662,4.589 13.582,4.549 13.471,4.52 13.33,4.5 13.216,4.484 13.101,4.478 12.987,4.484 c -0.115,0.006 -0.224,0.023 -0.33,0.05 -0.107,0.028 -0.203,0.067 -0.29,0.117 -0.088,0.05 -0.16,0.11 -0.218,0.179 -0.078,0.093 -0.112,0.179 -0.105,0.26 0.008,0.081 0.056,0.149 0.146,0.206 0.09,0.057 0.218,0.097 0.382,0.12 0.138,0.02 0.266,0.022 0.386,0.011 C 13.08,5.415 13.197,5.389 13.315,5.35 13.25,5.426 13.2,5.479 13.167,5.513 13.134,5.547 13.09,5.577 13.036,5.603 Z M 13.118,5.267 C 13.028,5.277 12.943,5.277 12.86,5.265 12.722,5.246 12.63,5.206 12.583,5.146 12.537,5.086 12.551,5.009 12.63,4.916 c 0.077,-0.092 0.179,-0.157 0.307,-0.195 0.126,-0.039 0.259,-0.047 0.399,-0.028 0.145,0.02 0.238,0.063 0.283,0.127 0.044,0.064 0.027,0.144 -0.051,0.238 -0.05,0.059 -0.114,0.106 -0.194,0.142 -0.079,0.034 -0.165,0.057 -0.256,0.067 z"
   id="path18" />
	</g>
</g>
<g
   id="g24">
</g>
<g
   id="g26">
</g>
<g
   id="g28">
</g>
<g
   id="g30">
</g>
<g
   id="g32">
</g>
<g
   id="g34">
</g>
<g
   id="g36">
</g>
<g
   id="g38">
</g>
<g
   id="g40">
</g>
<g
   id="g42">
</g>
<g
   id="g44">
</g>
<g
   id="g46">
</g>
<g
   id="g48">
</g>
<g
   id="g50">
</g>
<g
   id="g52">
</g>
</svg>
